!!!OTL: Shieryue qiao niang
!!!ARE: Asia, China,ÿHenan, Yichuan
!! IV, 144
!!!SCT: C1656
!!!YEM: Copyright 1995, estate of Helmut Schaffrath.
**kern
*ICvox
*Ivox
*M2/4
*k[b-e-a-]
*E-:
{8g
16g
16b-
16cc
16b-
16cc
16ee-
=1
2b-
=2
16g
16b-
16cc
16ee-
8b-
8g
=3
2f}
=4
{8b-
16f
16g
8b-
16b-
16g
=5
8f
16g
16b-
8.g
16f
=6
16e-
16e-
16f
16g
16e-
16f
16e-
16c
=7
2B-}
==
!!!AGN: Xiaodiao
!!!AMT: simple duple
!!!AIN: vox
!!!EED: Helmut Schaffrath
!!!EEV: 1.0
*-
